svgs/thin/landmark.svg

<svg xmlns="http://www.w3.org/2000/svg" viewBox="0 0 512 512"><!--! Font Awesome Pro 6.6.0 by @fontawesome - https://fontawesome.com License - https://fontawesome.com/license (Commercial License) Copyright 2024 Fonticons, Inc. --><path d="M259.3 .7c-2.1-.9-4.5-.9-6.6 0L14.1 108.5C5.5 112.3 0 120.9 0 130.3L0 136c0 13.3 10.7 24 24 24l464 0c13.3 0 24-10.7 24-24l0-5.7c0-9.4-5.5-18-14.1-21.9L259.3 .7zM20.7 123L256 16.8 491.3 123c2.9 1.3 4.7 4.1 4.7 7.3l0 5.7c0 4.4-3.6 8-8 8L24 144c-4.4 0-8-3.6-8-8l0-5.7c0-3.1 1.8-6 4.7-7.3zM80 200c0-4.4-3.6-8-8-8s-8 3.6-8 8l0 176c0 4.4 3.6 8 8 8l368 0c4.4 0 8-3.6 8-8l0-176c0-4.4-3.6-8-8-8s-8 3.6-8 8l0 168-104 0 0-168c0-4.4-3.6-8-8-8s-8 3.6-8 8l0 168-112 0 0-168c0-4.4-3.6-8-8-8s-8 3.6-8 8l0 168L80 368l0-168zM40 432c-4.4 0-8 3.6-8 8s3.6 8 8 8l432 0c4.4 0 8-3.6 8-8s-3.6-8-8-8L40 432zM8 496c-4.4 0-8 3.6-8 8s3.6 8 8 8l496 0c4.4 0 8-3.6 8-8s-3.6-8-8-8L8 496z"/></svg>

<svg xmlns="http://www.w3.org/2000/svg" viewBox="0 0 512 512"><!--! Font Awesome Pro 6.4.0 by @fontawesome - https://fontawesome.com License - https://fontawesome.com/license (Commercial License) Copyright 2023 Fonticons, Inc. --><path d="M259.3 .7c-2.1-.9-4.5-.9-6.6 0L14.1 108.5C5.5 112.3 0 120.9 0 130.3V136c0 13.3 10.7 24 24 24H488c13.3 0 24-10.7 24-24v-5.7c0-9.4-5.5-18-14.1-21.9L259.3 .7zM20.7 123L256 16.8 491.3 123c2.9 1.3 4.7 4.1 4.7 7.3V136c0 4.4-3.6 8-8 8H24c-4.4 0-8-3.6-8-8v-5.7c0-3.1 1.8-6 4.7-7.3zM80 200c0-4.4-3.6-8-8-8s-8 3.6-8 8V376c0 4.4 3.6 8 8 8H440c4.4 0 8-3.6 8-8V200c0-4.4-3.6-8-8-8s-8 3.6-8 8V368H328V200c0-4.4-3.6-8-8-8s-8 3.6-8 8V368H200V200c0-4.4-3.6-8-8-8s-8 3.6-8 8V368H80V200zM40 432c-4.4 0-8 3.6-8 8s3.6 8 8 8H472c4.4 0 8-3.6 8-8s-3.6-8-8-8H40zM8 496c-4.4 0-8 3.6-8 8s3.6 8 8 8H504c4.4 0 8-3.6 8-8s-3.6-8-8-8H8z"/></svg>
